X: 36
T:BRANLE DE SAINT IGNY
M:4/4
L:1/8
Q:160
C:BORJON trait de la musette 1672
K:C
"A"cd e2e2e2|c2dcded2|cde2e2e2|Bcd6|cd e2e2e2|c2dcded2|cde2e2e2|Bcd6|"B"
cde2Bcd2|ABcB cdc2|cde2Bcd2|ABc6|cde2Bcd2|ABcB cdc2|cde2Bcd2|ABc6:|
